X: 2
T: Malcolm Finlay
T: Calum Fhionnlaith
T: Larry Down's Reel
O: Trad.
B: S: BSFC Tune Book  p.62 #2
B: Ryan's Mammoth Collection #279 ("Larry Down's")
R: reel
Z: 2017 John Chambers <jc:trillian.mit.edu>
M: C|
L: 1/8
K: E
c |\
"E"BEGB egbg | "A"Tf2fe gfec |\
"E"BEGB egbg | "B"Tfefg "E"e/e/e e :|
f |\
"E"gebe gbeg | "B"Tfege "A"c/c/c ca |\
"E"gebe gbeg | "B"Tfefg "E"e/e/e e |]
f |\
"E"gebe gbeg | "B"Tfege "A"cdec |\
"E"GEGB egbg | "B"Tfefg "E"e/e/e e |]


